assets/svg/Repair.svg

<svg width="24" height="24" viewBox="0 0 24 24" fill="none" xmlns="http://www.w3.org/2000/svg">
<mask id="mask0_3_117" style="mask-type:alpha" maskUnits="userSpaceOnUse" x="0" y="0" width="24" height="24">
<rect width="24" height="24" fill="#D9D9D9"/>
</mask>
<g mask="url(#mask0_3_117)">
<path d="M18.9 21L13.425 15.525L15.525 13.425L21 18.9L18.9 21ZM5.1 21L3 18.9L9.9 12L8.2 10.3L7.5 11L6.225 9.72501V11.775L5.525 12.475L2.5 9.45001L3.2 8.75001H5.25L4 7.50001L7.55 3.95001C7.88333 3.61667 8.24167 3.37501 8.625 3.22501C9.00833 3.07501 9.4 3.00001 9.8 3.00001C10.2 3.00001 10.5917 3.07501 10.975 3.22501C11.3583 3.37501 11.7167 3.61667 12.05 3.95001L9.75 6.25001L11 7.50001L10.3 8.20001L12 9.90001L14.25 7.65001C14.1833 7.46667 14.1293 7.27501 14.088 7.07501C14.046 6.87501 14.025 6.67501 14.025 6.47501C14.025 5.49167 14.3627 4.66234 15.038 3.98701C15.7127 3.31234 16.5417 2.97501 17.525 2.97501C17.775 2.97501 18.0127 3.00001 18.238 3.05001C18.4627 3.10001 18.6917 3.17501 18.925 3.27501L16.45 5.75001L18.25 7.55001L20.725 5.07501C20.8417 5.30834 20.921 5.53734 20.963 5.76201C21.0043 5.98734 21.025 6.22501 21.025 6.47501C21.025 7.45834 20.6877 8.28734 20.013 8.96201C19.3377 9.63734 18.5083 9.97501 17.525 9.97501C17.325 9.97501 17.125 9.95834 16.925 9.92501C16.725 9.89167 16.5333 9.83334 16.35 9.75001L5.1 21Z" fill="#081B31"/>
</g>
</svg>

<svg width="24" height="24" fill="none" xmlns="http://www.w3.org/2000/svg">
    <mask id="a" style="mask-type:alpha" maskUnits="userSpaceOnUse" x="0" y="0" width="24" height="24">
        <path fill="#D9D9D9" d="M0 0h24v24H0z"/>
    </mask>
    <g mask="url(#a)">
        <path d="m18.9 21-5.475-5.475 2.1-2.1L21 18.9 18.9 21ZM5.1 21 3 18.9 9.9 12l-1.7-1.7-.7.7-1.275-1.275v2.05l-.7.7L2.5 9.45l.7-.7h2.05L4 7.5l3.55-3.55a3.144 3.144 0 0 1 1.075-.725C9.008 3.075 9.4 3 9.8 3s.792.075 1.175.225c.383.15.742.392 1.075.725l-2.3 2.3L11 7.5l-.7.7L12 9.9l2.25-2.25a4.112 4.112 0 0 1-.162-.575c-.042-.2-.063-.4-.063-.6 0-.983.338-1.813 1.013-2.488.675-.675 1.504-1.012 2.487-1.012.25 0 .488.025.713.075.225.05.454.125.687.225L16.45 5.75l1.8 1.8 2.475-2.475c.117.233.196.462.238.687.041.225.062.463.062.713 0 .983-.337 1.812-1.012 2.487s-1.505 1.013-2.488 1.013c-.2 0-.4-.017-.6-.05a2.295 2.295 0 0 1-.575-.175L5.1 21Z" fill="#081B31"/>
    </g>
</svg>
